!!!COM: Johannes Brahms
!!!CNT: Deutscher
!!!TXO: Deutsche
!!!OTL: Du sprichst, dass ich mich ta2uschte
!!!OPS: Op. 32
!!!ONM: No. 6
!!!LYR: Platen
!!!ONB: Original key: c minor
!!!ENC: Ayako Kataoka        
!!!EED: Leigh VanHandel
!!!YOR: C.F. Peters, Brahms Lieder fu2r eine Singstimme mit Klavierbegleitung, Band III, ausgabe fu2r tiefere Stimme
!!!ODT: 1864/
!!NB: Vocal melody and text only encoded.
**kern	**silbe
*clefG2	*
*k[]	*
*M4/4	*
*MM[andante]	*
=4	=4
2r	.
4r	.
{4e	{Du
=5	=5
4.e	sprichst,
8f	dass
4c	ich
4d	mich
=6	=6
4e	ta2usch-
4e}	-te,}
4r	.
{4b	{be-
=7	=7
4.dd	-schworst
8a	es
4a	hoch
4b	und
=8	=8
2g#}	hehr,}
4r	.
{4cc	{ich
=9	=9
4b	weiss
4a	ja
4gn	doch,
4e	du
=10	=10
4g	lieb-
4f}	-test,}
4r	.
{4dd	{al-
=11	=11
4cc	-lein
4b-	du
4.a	liebst
8bn	nicht
=12	=12
4b}	mehr,}
{4ff	{du
4ee}	liebst,}
{4dd	{du
=13	=13
2cc	liebst
2g#	nicht
=14	=14
2a}	mehr!}
2r	.
=17	=17
2r	.
4r	.
{4e	{Dein
=18	=18
4.f	scho2-
8g	-nes
4e	Au-
4e	-ge
=19	=19
4a	brann-
4d}	-te,}
4r	.
8r	.
{8g	{die
=20	=20
4.b-	Ku2s-
8cc	-se
4a	brann-
4a	-ten
=21	=21
2dd}	sehr,}
4r	.
{4cc	{du
=22	=22
4bn	lieb-
4a	-test
4g	mich,
4e	be-
=23	=23
4g	-kenn
4f}	es,}
4r	.
{4dd	{al-
=24	=24
4cc	-lein
4b-	du
4.a	liebst
8bn	nicht
=25	=25
4b}	mehr,}
{4ff	{du
4ee}	liebst,}
{4dd	{du
=26	=26
2cc	liebst
2g#	nicht
=27	=27
2a}	mehr!}
2r	.
=30	=30
2r	.
4r	.
{4e	{Ich
=31	=31
4.e	za2h-
8f	-le
4e	nicht
4d	auf
=32	=32
4g#	neu-
4g#}	-e,}
4r	.
{4a	{ge-
=33	=33
4.b-	-treu-
8b-	-e
4a	Wie-
4a	-der-
=34	=34
2g#}	kehr.}
4r	.
{4a	{Ge-
=35	=35
4gn	-steh
4f	nur,
4e	dass,
4c#	du
=36	=36
4e	lieb-
4d}	-test,}
4r	.
{4dd	{und
=37	=37
4cc	lie-
4b-	-be
4a	mich
4f#	nicht
=38	=38
(4cc	mehr,
4b-)}	|}
4r	.
{4dd	{und
=39	=39
(2cc#	lie-
4dd)	|
4a}	-be,}
=40	=40
{(2g#	{lie-
4a)	|
4e	-be
=41	=41
2c#	mich
2d	nicht
=42	=42
[1e	mehr!
=43	=43
4e]}	|}
4r	.
2r	.
*-	*-
